X:124150
T:I'll Tell Me Ma
M: 2/4
L: 1/8
R: polka
K: Dmaj
A|"D"Ad f>f|gf f>g|"A7"fe e>f|"D"ed d>d|
Ad f>f|gf f>g|"A7"fe e>f|"D"ed d2|
aa af|"G"gg ge|"D"f>f fd|"A7"ec B<A|
"D"aa af|"G"gg g2|"D"ff "A7"ef|"D"ed d2|]

%%textfont Palatino 16


%%begintext
 I'll tell me ma when I go home
 The boys won't leave the girls alone
 They pull my hair, they steal my comb
 But that's alright when I get home
 She is handsome, she is pretty
 She's the belle of Belfast city
 She is courtin', one, two, three
 Please won't you tell me, who is she
%%endtext

%%textfont Palatino-Bold 24

